X:94
T:Snowday Waltz
C:David Margolin
N:from â€œSweet Nellâ€ CH 0246 CD
N:Transcribed by Bruce Thomson
N:Published by permission from David Margolin
M:3/4
L:1/8
K:D
z4DE|:â€Dâ€F3GA2|â€Gâ€B2c2d2|â€Aâ€e2c2A2|A3GEG|â€Dâ€F3GA2|â€Gâ€B2c2d2|
â€œAâ€A6|E4DE|â€Dâ€F3GA2|â€Gâ€B2c2d2|â€Aâ€e2c2A2|A2d2c2|â€Gâ€B3AG2|â€Aâ€Ad3c2|
[1â€³Dâ€(d4d)e|d4DE:|[2â€ Dâ€(d4d)e|d4de|]â€Dâ€f3f gf|â€Aâ€e2d2c2|â€Dmâ€d3f ed|
â€œF#mâ€c2B2A2|â€Gâ€B3AG2|â€Dâ€Ad3F2|â€Aâ€(E4E)F|E4de|â€Dâ€f3f gf|â€Aâ€e2d2c2|
â€œBmâ€d3f ed|â€F#mâ€c2B2A2|â€Gâ€B3AG2|â€Aâ€Ad3c2|â€Dâ€(d4d)e|d6|]

